X: 20932
T: Young Collin
%R: air, strathspey
B: James Oswald "The Caledonian Pocket Companion" v.2 p.93 #2
Z: 2019 John Chambers <jc:trillian.mit.edu>
M: C
L: 1/16
K: D
"_Slow"A4 |\
f6 g2 a4 (gf)e2 | d4 (e3f/g/) f4 e(d^c2) |\
B4 (g3a/b/) (af3) Te3d | Te2d2e2f2 d4 z2B2 |\
f6 b2 (fd3) c3d | B12 (f2e2) |
dB3bf3 g6 e2 | (cA3)(ge3) f6 A2 |\
(Bc)d2 d4 (cd)e2 e4 | (dgfb) a2(gf) Te6 f2 |\
(ge3) (b/a/)g3 (fd3) e3f | d12 :|


